X: 35
T: St Giles's Pound
T: Longways for as many as will.
%R: march
B: Daniel Wright "Wright's Compleat Collection of Celebrated Country Dances" 1740 p.18
S: http://library.efdss.org/cgi-bin/dancebooks.cgi
Z: 2014 John Chambers <jc:trillian.mit.edu>
N: Repeats added to match the "Each Strain twice" note.
M: C|
L: 1/8
K: G
% - - - - - - - - - - - - - - - - - - - - - - - - -
|:\
G2G2 d4 | e2f2 g4 | g2fe d2cB | A2Bc B2AG | G2G2 d4 | e2f2 g4 |
a2gf e2d2 | A2^c2 d4 :||: fga2 a2gf | g2fe f2ed | c2c2 c2e2 |
dcBA B2AG | GABc d2G2 | F2G2 A4 | GABc d2G2 | A2GF G4 :|
% - - - - - - - - - - - - - - - - - - - - - - - - -
%%begintext align
%% The 1st Man turns the 2d Wo. with the right Hand & his Partner
%% with his left, & both cast of .| 1st Wo. turns 2d Man with
%% Her Right Hand & her Partner with her left, & both cast
%% up :| 1st Cu. change corners & go quite round & cast off,
%% & Right and left at bottom, then turn corners with your
%% left Armes, & figure in at top, & turn corners with your
%% Right Arm & figure in at bottom, then clap Hands Partners
%% & clap Sides and clap sides & lead thro' at bottom & top,
%% Right & Left quite round at bottom & turn.
%%endtext
%%center Each Strain twice.
% - - - - - - - - - - - - - - - - - - - - - - - - -
%%sep 2 4 300
